X:1
T:Title
L:1/8
M:4/4
I:linebreak $
K:D
V:1 treble nm="Voice"
V:1
"D" F2 FA GF D2 | de (3fed dcAF |"G" G2 GA GFDE |"D" FG (3AGF"G" GBAG |"D" F2 FA GF D2 | %5
 de (3fed dcAG | Ad=cA"A7" GcAG |1"D" F2 D2 D2 AG :|2"D" F2 D2 D2 A2 |:"D" agfd"A7" gfec | %10
"D" dcde fd A2 |"D" agfd"A7" gfeg | (3fed gf e2 fg |"D" (3agf ge f2 fd | Adde fdAG | %15
 Ad=cA"A7" GcAG |1"D" F2 D2 D2 A2 :|2"D" F2 D2 D2 AG |] %18
